img/stops-1.svg

<svg width="40" height="27" viewBox="0 0 40 27" fill="none" xmlns="http://www.w3.org/2000/svg">
<path d="M40 15.1251V17.7251H37.2584C36.1057 17.7251 35.5412 16.3186 36.3455 15.5054C36.5794 15.2706 36.902 15.1251 37.2584 15.1251H40Z" fill="#A52727"/>
<path d="M39.2984 6.76167L36.7283 3.50598H8.14303C6.87792 3.50598 5.78536 4.39729 5.5217 5.64448L5.04919 7.8813C4.69441 9.56155 5.96606 11.1435 7.67061 11.1435H39.9999V8.78479C39.9998 8.04989 39.7526 7.3367 39.2984 6.76167Z" fill="#6CC6E4"/>
<path d="M12.129 3.50598L8.91822 11.1435C7.65303 11.1435 6.84405 11.2663 5.95581 10.5187L8.90371 3.50598H12.129ZM30.1752 3.50598L26.9652 11.1435H23.7399L26.9499 3.50598H30.1752ZM40.0001 8.78479V11.1435H34.8953L37.6271 4.64429L39.2985 6.76167C39.7526 7.33671 39.9999 8.04988 40.0001 8.78479ZM20.1921 3.50598L16.9814 11.1435H15.3692L18.5795 3.50598H20.1921ZM36.6864 3.50598L33.4757 11.1435H32.2667L35.4769 3.50598H36.6864Z" fill="#97D3EE"/>
<path d="M29.3566 17.4001C31.8505 17.4001 33.8719 19.4371 33.8719 21.9501C33.8719 24.4632 31.8504 26.5001 29.3564 26.5001C26.8625 26.5001 24.8411 24.4632 24.8411 21.9501C24.8411 19.4371 26.8626 17.4001 29.3566 17.4001ZM30.0015 21.9501C30.0015 21.591 29.7128 21.3001 29.3564 21.3001C29 21.3001 28.7114 21.591 28.7114 21.9501C28.7114 22.3093 29 22.6001 29.3564 22.6001C29.7128 22.6001 30.0015 22.3093 30.0015 21.9501ZM9.8437 17.4001C12.3376 17.4001 14.359 19.4371 14.359 21.9501C14.359 24.4632 12.3375 26.5001 9.84354 26.5001C7.3496 26.5001 5.32825 24.4632 5.32825 21.9501C5.32825 19.4371 7.34976 17.4001 9.8437 17.4001ZM10.4886 21.9501C10.4886 21.591 10.1999 21.3001 9.84354 21.3001C9.48715 21.3001 9.19849 21.591 9.19849 21.9501C9.19849 22.3093 9.48715 22.6001 9.84354 22.6001C10.1999 22.6001 10.4886 22.3093 10.4886 21.9501Z" fill="#464646"/>
<path d="M37.2585 15.125H40.0001V11.1438H32.0983V3.50625H36.7284L35.3242 1.72687C35.0222 1.34425 34.6384 1.03522 34.2014 0.822796C33.7645 0.610373 33.2856 0.500035 32.8004 0.5H3.23194C1.45079 0.5 0.0065918 1.95519 0.0065918 3.75V18.7C0.0065918 20.4948 1.45079 21.95 3.23194 21.95H5.32828C5.32828 19.4378 7.349 17.4 9.84374 17.4C12.3377 17.4 14.359 19.4378 14.359 21.95H24.8412C24.8412 19.4378 26.8619 17.4 29.3566 17.4C31.8506 17.4 33.8719 19.4378 33.8719 21.95H36.7747C38.5559 21.95 40.0001 20.4948 40.0001 18.7V17.725H37.2585C36.5457 17.725 35.9684 17.1432 35.9684 16.425C35.9684 15.7059 36.5457 15.125 37.2585 15.125ZM13.0692 11.1438H7.6708C5.96624 11.1438 4.6946 9.56181 5.04938 7.88156L5.52188 5.64475C5.78555 4.39756 6.87811 3.50625 8.14322 3.50625H13.0693V11.1438H13.0692ZM21.1323 11.1438H14.3593V3.50625H21.1323V11.1438ZM22.4225 11.1438V3.50625H30.8081V11.1438H22.4225Z" fill="#DC0000"/>
<path d="M39.9837 19.0249C39.8225 20.6669 38.447 21.9499 36.7747 21.9499H33.8719C33.8719 20.8359 33.4743 19.8162 32.8148 19.0249H39.9837ZM6.63202 18.7519C5.8257 19.5741 5.32829 20.7035 5.32829 21.9499H3.23194C1.45079 21.9499 0.0065918 20.4947 0.0065918 18.6999V13.8517L0.412895 14.4529C1.89249 16.6451 4.12518 18.162 6.63202 18.7519ZM13.3019 19.0249H25.8982C25.2386 19.8162 24.8412 20.8359 24.8412 21.9499H14.359C14.359 20.8359 13.9614 19.8162 13.3019 19.0249Z" fill="#DC0000"/>
<path d="M36.7283 3.50625H8.14306C6.87794 3.50625 5.78539 4.39756 5.52172 5.64475C5.0135 8.05073 5.00003 8.04439 4.99028 8.3715C2.99932 7.83005 1.30291 6.76056 0.0065103 5.36038C0.0065103 3.73887 -0.0718637 3.18369 0.315249 2.36225C0.831292 1.26131 1.94336 0.5 3.23186 0.5H32.8003C33.7832 0.5 34.7121 0.95175 35.3241 1.72688L36.7283 3.50625Z" fill="#DC0000"/>
<path d="M9.84357 23.2499C9.13224 23.2499 8.55347 22.6667 8.55347 21.9499C8.55347 21.2331 9.13224 20.6499 9.84357 20.6499C10.5549 20.6499 11.1337 21.2331 11.1337 21.9499C11.1337 22.6667 10.5549 23.2499 9.84357 23.2499ZM29.3564 23.2499C28.6451 23.2499 28.0663 22.6667 28.0663 21.9499C28.0663 21.2331 28.6451 20.6499 29.3564 20.6499C30.0678 20.6499 30.6466 21.2331 30.6466 21.9499C30.6466 22.6667 30.0678 23.2499 29.3564 23.2499Z" fill="#F5F7FA"/>
<path d="M27.5825 15.206H26.2924C26.1213 15.206 25.9572 15.1375 25.8363 15.0156C25.7153 14.8937 25.6473 14.7284 25.6473 14.556C25.6473 14.3836 25.7153 14.2183 25.8363 14.0964C25.9572 13.9745 26.1213 13.906 26.2924 13.906H27.5825C27.7536 13.906 27.9177 13.9745 28.0386 14.0964C28.1596 14.2183 28.2276 14.3836 28.2276 14.556C28.2276 14.7284 28.1596 14.8937 28.0386 15.0156C27.9177 15.1375 27.7536 15.206 27.5825 15.206Z" fill="#A52727"/>
<path d="M3.95791 14.556C3.95791 14.9151 3.66844 15.206 3.31286 15.206H0.00695801V13.906H3.31286C3.66844 13.906 3.95791 14.1969 3.95791 14.556Z" fill="#DC0000"/>
<path d="M3.15159 16.9936C3.15159 17.3528 2.86213 17.6436 2.50654 17.6436H0.00695801V16.3436H2.50654C2.86213 16.3436 3.15159 16.6345 3.15159 16.9936Z" fill="#A52727"/>
</svg>

<svg xmlns="http://www.w3.org/2000/svg" width="40" height="27" fill="none"><path fill="#A52727" d="M40 15.125v2.6h-2.742c-1.152 0-1.717-1.406-.913-2.22.234-.234.557-.38.913-.38H40Z"/><path fill="#6CC6E4" d="m39.298 6.762-2.57-3.256H8.143a2.685 2.685 0 0 0-2.621 2.138l-.473 2.237c-.355 1.68.917 3.262 2.622 3.262H40V8.785c0-.735-.247-1.448-.702-2.023Z"/><path fill="#97D3EE" d="m12.129 3.506-3.21 7.637c-1.266 0-2.075.123-2.963-.624l2.948-7.013h3.225Zm18.046 0-3.21 7.637H23.74l3.21-7.637h3.225ZM40 8.785v2.358h-5.105l2.732-6.499 1.671 2.118c.455.575.702 1.288.702 2.023ZM20.192 3.506l-3.21 7.637h-1.613l3.21-7.637h1.613Zm16.494 0-3.21 7.637h-1.21l3.21-7.637h1.21Z"/><path fill="#464646" d="M29.357 17.4c2.494 0 4.515 2.037 4.515 4.55s-2.022 4.55-4.516 4.55-4.515-2.037-4.515-4.55 2.022-4.55 4.516-4.55Zm.645 4.55c0-.359-.29-.65-.646-.65a.647.647 0 0 0-.645.65c0 .36.289.65.645.65.357 0 .645-.29.645-.65ZM9.843 17.4c2.494 0 4.515 2.037 4.515 4.55s-2.021 4.55-4.515 4.55c-2.494 0-4.516-2.037-4.516-4.55S7.35 17.4 9.844 17.4Zm.645 4.55c0-.359-.29-.65-.645-.65a.647.647 0 0 0-.646.65c0 .36.29.65.646.65.356 0 .645-.29.645-.65Z"/><path fill="#DC0000" d="M37.258 15.125H40v-3.981h-7.902V3.506h4.63l-1.404-1.78A3.204 3.204 0 0 0 32.8.5H3.232C1.45.501.007 1.956.007 3.751V18.7c0 1.795 1.444 3.25 3.225 3.25h2.096c0-2.512 2.021-4.55 4.516-4.55 2.494 0 4.515 2.038 4.515 4.55h10.482c0-2.512 2.02-4.55 4.516-4.55 2.494 0 4.515 2.038 4.515 4.55h2.903c1.78 0 3.225-1.455 3.225-3.25v-.975h-2.742c-.712 0-1.29-.582-1.29-1.3 0-.72.578-1.3 1.29-1.3ZM13.07 11.144H7.671c-1.705 0-2.976-1.582-2.622-3.262l.473-2.237a2.685 2.685 0 0 1 2.621-2.139h4.926v7.638Zm8.063 0H14.36V3.506h6.773v7.638Zm1.29 0V3.506h8.386v7.638h-8.386Z"/><path fill="#DC0000" d="M39.984 19.025c-.162 1.642-1.537 2.925-3.21 2.925h-2.902a4.553 4.553 0 0 0-1.057-2.925h7.169Zm-33.352-.273a4.553 4.553 0 0 0-1.304 3.198H3.232C1.45 21.95.007 20.495.007 18.7v-4.848l.406.6a10.373 10.373 0 0 0 6.219 4.3Zm6.67.273h12.596a4.552 4.552 0 0 0-1.057 2.925H14.36a4.553 4.553 0 0 0-1.057-2.925ZM36.728 3.506H8.143a2.685 2.685 0 0 0-2.621 2.139C5.013 8.05 5 8.045 4.99 8.37a10.53 10.53 0 0 1-4.983-3.01c0-1.622-.079-2.177.308-2.999A3.222 3.222 0 0 1 3.232.5H32.8c.983 0 1.912.452 2.524 1.227l1.404 1.78Z"/><path fill="#F5F7FA" d="M9.844 23.25c-.712 0-1.29-.583-1.29-1.3 0-.717.578-1.3 1.29-1.3.71 0 1.29.583 1.29 1.3 0 .717-.58 1.3-1.29 1.3Zm19.512 0c-.71 0-1.29-.583-1.29-1.3 0-.717.58-1.3 1.29-1.3.712 0 1.29.583 1.29 1.3 0 .717-.578 1.3-1.29 1.3Z"/><path fill="#A52727" d="M27.582 15.206h-1.29a.642.642 0 0 1-.456-.19.652.652 0 0 1 .456-1.11h1.29c.172 0 .336.069.457.19a.652.652 0 0 1-.457 1.11Z"/><path fill="#DC0000" d="M3.958 14.556c0 .36-.29.65-.645.65H.007v-1.3h3.306c.355 0 .645.29.645.65Z"/><path fill="#A52727" d="M3.152 16.994c0 .359-.29.65-.645.65h-2.5v-1.3h2.5c.355 0 .645.29.645.65Z"/></svg>
